X:71
T:Out On The Ocean
S:The Session: https://thesession.org/tunes/108#setting55383
C:Traditional
R:jig
K:G
M:6/8
L:1/8
Q:1/4=113
GE |: "G"D2B BAG| BdB "D"A2B| "G"GED G2A| "C"B2B "D"AGE|
| "G"D2B BAG| BdB "D"A2B| "G"GED G2A|1 "D"BGE "G"G GE :|2 "D"BGE "G"G Bd |]
|: "Em"e2e edB| ege edB| "D"d2B def| gfe dBA| 
| "G"G2A B2d| "C"ege "G"d2B| AGE G2A|1 "D"BGE "G"G Bd:|2 "D"BGE "G" G3 |]

